assets/Eight-spoked asterisk/Flat/eight-spoked_asterisk_flat.svg

<svg width="32" height="32" viewBox="0 0 32 32" fill="none" xmlns="http://www.w3.org/2000/svg">
<path d="M2 6C2 3.79086 3.79086 2 6 2H26C28.2091 2 30 3.79086 30 6V26C30 28.2091 28.2091 30 26 30H6C3.79086 30 2 28.2091 2 26V6Z" fill="#00D26A"/>
<path d="M16 6C15.4477 6 15 6.44772 15 7V13.5858L10.3432 8.92894C9.95263 8.53841 9.31946 8.53841 8.92894 8.92894C8.53842 9.31946 8.53842 9.95263 8.92894 10.3432L13.5858 15H7C6.44772 15 6 15.4477 6 16C6 16.5523 6.44772 17 7 17H13.5858L8.92892 21.6569C8.5384 22.0474 8.5384 22.6805 8.92892 23.0711C9.31945 23.4616 9.95261 23.4616 10.3431 23.0711L15 18.4142V25C15 25.5523 15.4477 26 16 26C16.5523 26 17 25.5523 17 25V18.4142L21.6569 23.0711C22.0474 23.4616 22.6806 23.4616 23.0711 23.0711C23.4616 22.6805 23.4616 22.0474 23.0711 21.6569L18.4142 17H25C25.5523 17 26 16.5523 26 16C26 15.4477 25.5523 15 25 15H18.4142L23.0711 10.3432C23.4616 9.95263 23.4616 9.31946 23.0711 8.92894C22.6805 8.53841 22.0474 8.53841 21.6568 8.92894L17 13.5858V7C17 6.44772 16.5523 6 16 6Z" fill="white"/>
</svg>

<svg xmlns="http://www.w3.org/2000/svg" width="32" height="32" fill="none"><path fill="#00D26A" d="M2 6a4 4 0 0 1 4-4h20a4 4 0 0 1 4 4v20a4 4 0 0 1-4 4H6a4 4 0 0 1-4-4V6Z"/><path fill="#fff" d="M16 6a1 1 0 0 0-1 1v6.586l-4.657-4.657a1 1 0 0 0-1.414 1.414L13.586 15H7a1 1 0 1 0 0 2h6.586l-4.657 4.657a1 1 0 0 0 1.414 1.414L15 18.414V25a1 1 0 1 0 2 0v-6.586l4.657 4.657a1 1 0 0 0 1.414-1.414L18.414 17H25a1 1 0 1 0 0-2h-6.586l4.657-4.657a1 1 0 0 0-1.414-1.414L17 13.586V7a1 1 0 0 0-1-1Z"/></svg>
